X: 1
T: Fandango [C]
T: 6 times
O: 1774
R: jig
Z: John Chambers <jc:trillian.mit.edu>
B: Thompson, Twenty Four Country Dances, 1774
B: Playford Ball
B: Barnes 1986
M: 6/8
L: 1/8
K: C
|: "C"c2c cBc | "F"A2F "G7"EFG | "C"c2c "F"c2d | "G7"ecg "C"e2G \
|  "C"c2c cBc | "F"A2F "G7"EFG | "C"c2c "F"c2f | "G7"d2g "C"e2c :|
|: "C"gag e2c | G2c G2c | gag e2c | "F"A2c A2c \
|  "C"gag e2c | "F"A2F "C"E2G | "F"A2c "G7"d2B | "C"c3- cz2 :|
